X:1
T:Title
%%score { 1 | 2 }
L:1/8
Q:1/4=94
M:2/4
K:Eb
V:1 treble nm="Grand Piano"
V:2 bass 
V:1
 GG EG | [DB][DA] [DA]2 | [FA][DF] [GB][FA] | [FA][EG] [EG]2 | [GB][GB] [Ac][Ae] | [Ac][GB] [GB]2 | %6
w: J.~W.~Pratt * * *||||||
 [B,EG][B,EG] [B,DF][A,DF] | [G,E]4 | [B,DF][B,EG] [B,FA][B,DF] | [B,EG][B,FA] [EGB]2 | %10
w: ||||
 [EGB][EGB] [EGc][Ge] | [Fd][Ec] [DB]2 | BB eG | FE c2 | BG [EG][DF] | E4 |] %16
w: ||||||
V:2
 [E,B,E][E,B,E] [E,G,][E,B,E] | [B,,B,][B,,B,] [B,,B,]2 | [B,,B,][B,,B,] [B,,B,][B,,B,] | %3
 [E,B,][E,B,] [E,B,]2 | [E,E][E,E] [A,E][A,C] | [E,E][E,E] [E,E]2 | E,E, B,,B,, | E,4 | %8
 B,,B,, B,,B,, | E,E, E,2 | E,E, C,[C,C] | [F,=A,][F,A,] [B,,B,]2 | [E,G,E][E,G,E] [G,B,E][E,B,E] | %13
 [A,D][A,C] [A,E]2 | [E,G,E][E,B,E] [B,,B,][B,,A,] | [E,G,]4 |] %16

